Sources/FrostedUI/Resources/Icons.xcassets/twitterFilled32.imageset/twitter-filled-32.svg

<svg width="32" height="32" viewBox="0 0 32 32" fill="none" xmlns="http://www.w3.org/2000/svg" data-fui-icon="true">
  <path
    d="M31 6.84167C29.8968 7.32285 28.7116 7.64799 27.4657 7.79495C28.7367 7.04584 29.7117 5.85716 30.1716 4.44219C28.9825 5.13667 27.6652 5.64127 26.2633 5.91179C25.1403 4.73611 23.5416 4 21.7712 4C18.3729 4 15.6168 6.71291 15.6168 10.0605C15.6168 10.5339 15.6724 10.9943 15.7753 11.439C10.6582 11.1854 6.12508 8.77295 3.08888 5.10805C2.56039 6.00541 2.25649 7.04584 2.25649 8.15389C2.25649 10.2556 3.34388 12.1114 4.99409 13.1974C3.98468 13.1648 3.03603 12.893 2.20629 12.4391V12.5172C2.20629 15.4525 4.32688 17.9013 7.14375 18.458C6.62583 18.5959 6.0828 18.6687 5.52259 18.6687C5.12623 18.6687 4.73909 18.6323 4.36387 18.562C5.14736 20.968 7.41989 22.7212 10.1139 22.768C8.00652 24.3936 5.35216 25.3625 2.46921 25.3625C1.97243 25.3625 1.48225 25.3339 1 25.278C3.72439 26.9985 6.95877 28 10.4336 28C21.7567 28 27.9467 18.7688 27.9467 10.7628C27.9467 10.5027 27.94 10.2399 27.9281 9.97984C29.1304 9.12409 30.1743 8.05896 30.9973 6.84556L31 6.84167Z"
    fill="currentColor"
  />
</svg>

<svg xmlns="http://www.w3.org/2000/svg" width="32" height="32" fill="none" data-fui-icon="true" viewBox="0 0 32 32"><path fill="currentColor" d="M31 6.842a12.5 12.5 0 0 1-3.534.953 6.1 6.1 0 0 0 2.706-3.353c-1.19.695-2.507 1.2-3.909 1.47A6.2 6.2 0 0 0 21.771 4c-3.398 0-6.154 2.713-6.154 6.06q.002.711.158 1.379A17.57 17.57 0 0 1 3.09 5.109a6 6 0 0 0-.833 3.045c0 2.102 1.088 3.957 2.738 5.043a6.2 6.2 0 0 1-2.788-.758v.078c0 2.936 2.12 5.384 4.938 5.941a6.3 6.3 0 0 1-2.78.104c.783 2.406 3.056 4.16 5.75 4.206a12.48 12.48 0 0 1-7.645 2.595q-.746-.001-1.469-.085A17.6 17.6 0 0 0 10.434 28c11.323 0 17.513-9.231 17.513-17.237q0-.392-.019-.783a12.4 12.4 0 0 0 3.07-3.134z"/></svg>
